Papirus/24x24/panel/hexchat-indicator.svg

<?xml version="1.0" encoding="UTF-8" standalone="no"?>
<svg xmlns:dc="http://purl.org/dc/elements/1.1/" xmlns:cc="http://creativecommons.org/ns#" xmlns:rdf="http://www.w3.org/1999/02/22-rdf-syntax-ns#" xmlns:svg="http://www.w3.org/2000/svg" xmlns="http://www.w3.org/2000/svg" version="1.1" id="svg2" height="24" viewBox="0 0 6.7733335 6.7733335" width="24">
    <metadata id="metadata10">
        <rdf:RDF>
            <cc:Work rdf:about="">
                <dc:format>
                    image/svg+xml
                </dc:format>
                <dc:type rdf:resource="http://purl.org/dc/dcmitype/StillImage"/>
                <dc:title/>
            </cc:Work>
        </rdf:RDF>
    </metadata>
    <path id="path4146" d="M 2.1181959,1.4111111 A 0.28467281,0.28222221 0 0 0 1.8718027,1.551671 L 0.88512743,3.2450043 a 0.28467281,0.28222221 0 0 0 0,0.2833246 L 1.8718027,5.2216622 a 0.28467281,0.28222221 0 0 0 0.2463932,0.14056 l 1.9722484,0 a 0.28467281,0.28222221 0 0 0 0.2458418,-0.14056 L 5.3235126,3.5283289 a 0.28467281,0.28222221 0 0 0 0,-0.2833246 L 4.3362861,1.551671 A 0.28467281,0.28222221 0 0 0 4.0904443,1.4111111 l -1.9722484,0 z m 0.2370226,0.5644444 a 0.21350459,0.20158734 0 0 1 0.00937,0 l 1.4794619,0 a 0.21350459,0.20158734 0 0 1 0.179696,0.092604 0.21350459,0.20158734 0 0 1 0,5.503e-4 L 3.10432,2.9875868 2.1848929,2.0681597 A 0.21350459,0.20158734 0 0 1 2.3552185,1.9755555 Z M 1.8817246,2.563151 2.7052402,3.3866666 1.8817246,4.2101823 1.4396499,3.4880902 a 0.21350459,0.20158734 0 0 1 0,-0.2028472 L 1.8817246,2.563151 Z m 2.4451908,0 0.4420749,0.722092 a 0.21350459,0.20158734 0 0 1 0,0.2028472 L 4.3269154,4.2101823 3.5033997,3.3866666 4.3269154,2.563151 Z M 3.10432,3.7857463 4.0231958,4.7046224 A 0.21350459,0.20158734 0 0 1 3.844051,4.7977774 l -1.4794619,0 A 0.21350459,0.20158734 0 0 1 2.1848929,4.7051736 L 3.10432,3.7857463 Z" style="color:#000000;display:inline;visibility:visible;opacity:1;color-interpolation:sRGB;color-interpolation-filters:linearRGB;fill:#ffffff;fill-opacity:1;fill-rule:nonzero;stroke:none;color-rendering:auto;image-rendering:auto;shape-rendering:auto"/>
</svg>

<?xml version="1.0" encoding="UTF-8" standalone="no"?>
<svg id="svg2" xmlns:rdf="http://www.w3.org/1999/02/22-rdf-syntax-ns#" xmlns="http://www.w3.org/2000/svg" height="24" viewBox="0 0 6.7733335 6.7733335" width="24" version="1.1" xmlns:cc="http://creativecommons.org/ns#" xmlns:dc="http://purl.org/dc/elements/1.1/">
 <metadata id="metadata10">
  <rdf:RDF>
   <cc:Work rdf:about="">
    <dc:format>image/svg+xml</dc:format>
    <dc:type rdf:resource="http://purl.org/dc/dcmitype/StillImage"/>
    <dc:title/>
   </cc:Work>
  </rdf:RDF>
 </metadata>
 <path id="path4146" style="color-rendering:auto;color:#000000;shape-rendering:auto;image-rendering:auto" d="m2.1182 1.4111a0.28467 0.28222 0 0 0 -0.2464 0.1406l-0.98667 1.6933a0.28467 0.28222 0 0 0 0 0.28332l0.98667 1.6934a0.28467 0.28222 0 0 0 0.24639 0.14056h1.9722a0.28467 0.28222 0 0 0 0.24584 -0.14056l0.9873-1.6934a0.28467 0.28222 0 0 0 0 -0.28332l-0.9872-1.6933a0.28467 0.28222 0 0 0 -0.2459 -0.1406h-1.9722zm0.23702 0.56444a0.2135 0.20159 0 0 1 0.00937 0h1.4795a0.2135 0.20159 0 0 1 0.1797 0.092604 0.2135 0.20159 0 0 1 0 0.0005503l-0.9195 0.9189-0.9194-0.9194a0.2135 0.20159 0 0 1 0.1703 -0.0926zm-0.4735 0.5877 0.8235 0.8235-0.8235 0.8235-0.4421-0.7221a0.2135 0.20159 0 0 1 0 -0.20285l0.4421-0.722zm2.4452 0 0.44207 0.72209a0.2135 0.20159 0 0 1 0 0.20285l-0.4421 0.722-0.8235-0.8235 0.8235-0.8235zm-1.2226 1.2225 0.9189 0.9189a0.2135 0.20159 0 0 1 -0.1791 0.0932h-1.4795a0.2135 0.20159 0 0 1 -0.1797 -0.0926l0.9194-0.9195z" fill="#fff"/>
</svg>
